!!!COM: Palestrina, Giovanni Perluigi da
!!!OPR: Missa Aspice Domine
!!!OMD: Sanctus
!!!OTL: First Section
**kern	**kern	**kern	**kern	**kern
*Ibass	*Itenor	*Itenor	*Icalto	*Icant
!Bassus	!Tenor 2	!Tenor 1	!Altus	!Cantus
*clefF4	*clefGv2	*clefGv2	*clefG2	*clefG2
*k[]	*k[]	*k[]	*k[]	*k[]
*D:dor	*D:dor	*D:dor	*D:dor	*D:dor
*M4/2	*M4/2	*M4/2	*M4/2	*M4/2
=1	=1	=1	=1	=1
0r	1r	0r	1.d	0a
.	[1d	.	.	.
.	.	.	2e	.
=2	=2	=2	=2	=2
0r	2d]	0r	2f	0dd
.	2e	.	2g	.
.	2f	.	2a	.
.	2g	.	2b-	.
=3	=3	=3	=3	=3
1r	1e	1A	0a	1cc
[1D	2d	2.d	.	[1ff
.	[2a	.	.	.
.	.	4e	.	.
=4	=4	=4	=4	=4
2D]	2a]	2f	0d	2ff]
2E	2g	2g	.	2ee
2F	1f	[1a	.	[1dd
2G	.	.	.	.
=5	=5	=5	=5	=5
[0A	0e	0a]	1r	2dd]
.	.	.	.	4cc
.	.	.	.	4b
.	.	.	[1e	2.cc
.	.	.	.	4b
=6	=6	=6	=6	=6
1A]	0r	1.A	1e]	4cc
.	.	.	.	4dd
.	.	.	.	1ee
1r	.	.	[1a	.
.	.	2B	.	2dd
=7	=7	=7	=7	=7
0r	1r	2c	1a]	1cc
.	.	2d	.	.
.	[1e	1e	1g	1b
=8	=8	=8	=8	=8
1.A	1e]	1c	[0cc	2.a
.	.	.	.	4b
.	[1a	1f	.	2cc
2B	.	.	.	2dd
=9	=9	=9	=9	=9
2c	1a]	1e	1cc]	1ee
2d	.	.	.	.
2.e	1g#	1r	1b	2r
.	.	.	.	[2ee
4d	.	.	.	.
=10	=10	=10	=10	=10
2c#	[0a	0A	1a	2ee]
1d	.	.	.	1ff
.	.	.	1e	.
2c#	.	.	.	[2ee
=11	=11	=11	=11	=11
1d	1a]	0d	2.f	2ee]
.	.	.	.	4dd
.	.	.	4g	4cc#
1D	1f	.	1a	1dd
=12	=12	=12	=12	=12
1.A	2e	2c	1a	0ee
.	2c	4A	.	.
.	.	4B	.	.
.	2A	4c	2r	.
.	.	4d	.	.
2A	[2c	4e	2cc	.
.	.	4c	.	.
=13	=13	=13	=13	=13
0F	4c]	2.f	2a	1r
.	4B-	.	.	.
.	4A	.	2.cc	.
.	4G	8e	.	.
.	.	8d	.	.
.	1A	1c	.	1ff
.	.	.	4b-	.
.	.	.	4a	.
.	.	.	4g	.
=14	=14	=14	=14	=14
0B-	0d	2r	2f	2dd
.	.	2f	2d	2.ff
.	.	2d	2.f	.
.	.	.	.	4ee
.	.	[2f	.	2dd
.	.	.	4g	.
=15	=15	=15	=15	=15
[0A	2r	2f]	2a	2cc
.	1c	4e	2cc	2a
.	.	4d	.	.
.	.	2e	2a	2.cc
.	2A	[2a	[2cc	.
.	.	.	.	4dd
=16	=16	=16	=16	=16
0A]	2c	4a]	4cc]	2ee
.	.	4g	4b-	.
.	2d	2f	4a	1dd
.	.	.	4g	.
.	2e	1e	1a	.
.	[2a	.	.	2cc#
=17	=17	=17	=17	=17
[0D	4a]	0d	2f	1dd
.	4g	.	.	.
.	4f	.	1a	.
.	4e	.	.	.
.	1f	.	.	2r
.	.	.	2a	[2dd
=18	=18	=18	=18	=18
0D]	0r	2r	1b-	2dd]
.	.	1d	.	2dd
.	.	.	1a	2.ff
.	.	2d	.	.
.	.	.	.	4ee
=19	=19	=19	=19	=19
0r	1r	1f	2d	2dd
.	.	.	1a	1cc
.	2r	1e	.	.
.	[2e	.	2g	2b
=20	=20	=20	=20	=20
0r	2e]	1A	2.cc	2.ee
.	2e	.	.	.
.	.	.	4b	4dd
.	1f	1r	4a	2cc
.	.	.	4g	.
.	.	.	[2a	4b
.	.	.	.	4a
=21	=21	=21	=21	=21
1r	1e	2r	2a]	2b
.	.	1e	2g#	2b
2r	1A	.	1a	2.cc
[2A	.	2e	.	.
.	.	.	.	4b
=22	=22	=22	=22	=22
2A]	1r	1f	2r	4a
.	.	.	.	4b
2A	.	.	2a	4cc
.	.	.	.	4dd
1c	1A	2e	2a	1ee
.	.	4c	[2cc	.
.	.	4d	.	.
=23	=23	=23	=23	=23
2A	2c	4e	2cc]	0r
.	.	4f#	.	.
2G	2d	1g	2.b-	.
2c	2e	.	.	.
.	.	.	4a	.
2d	2f	[2f	[2a	.
=24	=24	=24	=24	=24
1B-	2d	4f]	2a]	1r
.	.	4e	.	.
.	2d	1d	2g	.
[1A	1e	.	2a	2r
.	.	4c	2a	[2a
.	.	4B	.	.
=25	=25	=25	=25	=25
1A]	2r	1c	1e	2a]
.	1e	.	.	2a
1r	.	1A	2r	1cc
.	2e	.	[2a	.
=26	=26	=26	=26	=26
0r	1f	1d	2a]	1dd
.	.	.	2a	.
.	2e	1A	2cc	1ee
.	2c	.	2cc	.
=27	=27	=27	=27	=27
0r	2g	0r	2b	2dd
.	2a	.	2.cc	2cc
.	1f	.	.	4a
.	.	.	4b	4b
.	.	.	[2a	4cc
.	.	.	.	4a
=28	=28	=28	=28	=28
1r	1e	2r	2a]	1b
.	.	2e	2g#	.
2r	1A	2e	1a	2.cc
[2A	.	2f	.	.
.	.	.	.	4b
=29	=29	=29	=29	=29
2A]	1r	4e	2r	1a
.	.	4d	.	.
2A	.	4c	2e	.
.	.	4d	.	.
1c	2r	4e	2e	1g
.	.	4f	.	.
.	2e	2g	[2cc	.
=30	=30	=30	=30	=30
2A	2e	2c	2cc]	1r
2G	1g	2d	2b-	.
2c	.	2e	1a	2r
2d	[2f	[2a	.	[2dd
=31	=31	=31	=31	=31
1B-	4f]	2a]	1r	2dd]
.	4e	.	.	.
.	1d	2g	.	2dd
[1A	.	1a	2r	1ff
.	4c	.	[2a	.
.	4B	.	.	.
=32	=32	=32	=32	=32
1A]	2.c	2r	2a]	1ee
.	.	1A	2a	.
.	4d	.	.	.
1r	1e	.	1cc	4a
.	.	.	.	4b
.	.	2A	.	4cc
.	.	.	.	4dd
=33	=33	=33	=33	=33
0r	2r	1c	2a	2ee
.	2e	.	2g	4cc
.	.	.	.	4dd
.	2c	2A	2cc	4ee
.	.	.	.	4ff
.	2d	2G	[2b-	[2gg
=34	=34	=34	=34	=34
0r	2e	2c	4b-]	2gg]
.	.	.	4a	.
.	2f	2d	1a	2.ff
.	1d	1B-	.	.
.	.	.	.	4ee
.	.	.	2g	[2dd
=35	=35	=35	=35	=35
2r	0e	0A	0a	2dd]
1A	.	.	.	4cc
.	.	.	.	4b
.	.	.	.	1cc#
2A	.	.	.	.
=36	=36	=36	=36	=36
1B-	[0d	2r	1f	[0dd
.	.	2.d	.	.
2G	.	.	2g	.
.	.	4e	.	.
2F	.	[2f	2a	.
=37	=37	=37	=37	=37
2.B-	1d_	4f]	2b-	1dd_
.	.	4e	.	.
.	.	4d	2f	.
4A	.	4c	.	.
2G	1d_	2B-	2g	1dd_
2F#	.	2A	[2a	.
=38	=38	=38	=38	=38
1G	0d]	1B-	4a]	0dd]
.	.	.	4g	.
.	.	.	1g	.
1G	.	1B-	.	.
.	.	.	4f	.
.	.	.	4e	.
=39	=39	=39	=39	=39
[0D	[0d	[0A	[0f#	[0dd
=40	=40	=40	=40	=40
0D]	0d]	0A]	0f#]	0dd]
*-	*-	*-	*-	*-
!!!CDT: 1525/^1526/-1594/2/2
!!!OCY: Italia
!!!AGN: Mass (Parody)
!!!AST: renaissance, vocal
!!!ASW: Motet (Jacquet)
!!!PWK: Masses, Book 2
!!!RNB: Cadence finals: A
!!!YOR: Le Opere Complete, v. 4, p. 91
!!!YOO: Rome, Italy: Fratelli Scalera
!!!END: 1992//
!!!EED: John Miller
!!!YEC: Copyright 2000, John Miller
!!!YEN: United States of America
!!!YEM: Rights to all derivative electronic formats reserved.
!!!YEM: Refer to licensing agreement for further details.
!!!YEM: This file must be accompanied by the licensing agreement.
!!!YEM: A copy of the licensing agreement may be found at http://www.music-cog.ohio-state.edu/HumdrumDatabases/Palestrina/license.txt
!!!EMD: converted to Humdrum by Bret Aarden
